src/img/icons/settings.svg

<svg width="32" height="32" viewBox="0 0 32 32" fill="none" xmlns="http://www.w3.org/2000/svg">
<path d="M14.3931 30.1667C14.0468 30.1667 13.7416 30.0533 13.4776 29.8263C13.2133 29.5991 13.0547 29.315 13.0019 28.9738L12.5322 25.7173C12.0643 25.5587 11.5673 25.3304 11.0412 25.0324C10.5148 24.7345 10.0568 24.418 9.66698 24.083L6.68461 25.4274C6.35156 25.5684 6.01765 25.5841 5.68288 25.4745C5.3481 25.365 5.08788 25.1538 4.90219 24.8409L3.03724 21.5626C2.85156 21.2497 2.79777 20.9249 2.87588 20.5882C2.95398 20.2517 3.13782 19.9732 3.4274 19.7526L6.11909 17.751C6.07488 17.5053 6.04319 17.2436 6.02403 16.9659C6.00488 16.6881 5.9953 16.4264 5.9953 16.1807C5.9953 15.9447 6.00488 15.6887 6.02403 15.4126C6.04319 15.1363 6.07488 14.8596 6.11909 14.5825L3.4274 12.5809C3.13782 12.3603 2.95631 12.0794 2.88288 11.738C2.80944 11.3968 2.86568 11.0696 3.05161 10.7565L4.90219 7.52101C5.08788 7.21768 5.3481 7.00878 5.68288 6.89433C6.01765 6.78012 6.35156 6.7935 6.68461 6.93448L9.65298 8.25527C10.071 7.91706 10.535 7.60133 11.0449 7.30806C11.5548 7.01505 12.0459 6.79264 12.5182 6.64085L13.0019 3.3597C13.0547 3.01854 13.2133 2.73436 13.4776 2.50717C13.7416 2.28022 14.0468 2.16675 14.3931 2.16675H18.0965C18.4428 2.16675 18.7479 2.28022 19.012 2.50717C19.2763 2.73436 19.4348 3.01854 19.4876 3.3597L19.9574 6.63017C20.4663 6.81733 20.9611 7.0455 21.4417 7.31469C21.9226 7.58389 22.3687 7.89741 22.7798 8.25527L25.8189 6.93448C26.1522 6.7935 26.4837 6.78012 26.8133 6.89433C27.1429 7.00878 27.4006 7.21768 27.5862 7.52101L29.4523 10.7709C29.638 11.0838 29.6918 11.4126 29.6137 11.7575C29.5356 12.1023 29.3517 12.3768 29.0621 12.5809L26.3141 14.5855C26.377 14.8601 26.4149 15.1307 26.4279 15.3975C26.4407 15.664 26.4471 15.9204 26.4471 16.1667C26.4471 16.4035 26.4382 16.6528 26.4206 16.9146C26.4031 17.1762 26.3651 17.4554 26.3064 17.7521L29.012 19.7526C29.3016 19.9567 29.4878 20.2312 29.5706 20.576C29.6536 20.9209 29.6021 21.2497 29.4162 21.5626L27.5675 24.8265C27.3754 25.1394 27.1096 25.3506 26.7702 25.4602C26.4308 25.57 26.0976 25.5542 25.7707 25.413L22.7798 24.069C22.3522 24.4229 21.8978 24.7458 21.4167 25.0376C20.9355 25.3296 20.4491 25.5515 19.9574 25.7033L19.4876 28.9738C19.4348 29.315 19.2763 29.5991 19.012 29.8263C18.7479 30.0533 18.4428 30.1667 18.0965 30.1667H14.3931ZM14.7011 28.3151H17.7619L18.2917 24.258C19.0639 24.0615 19.7795 23.7732 20.4385 23.393C21.0977 23.013 21.7296 22.5285 22.334 21.9395L26.1203 23.5635L27.5866 20.9883L24.2498 18.5095C24.3564 18.0913 24.436 17.6923 24.4886 17.3125C24.5411 16.9328 24.5674 16.5509 24.5674 16.1667C24.5674 15.7669 24.5436 15.3818 24.4959 15.0114C24.4485 14.641 24.3665 14.2546 24.2498 13.8523L27.615 11.3452L26.1487 8.76996L22.32 10.4013C21.8104 9.83764 21.1971 9.34052 20.4801 8.90996C19.7632 8.47915 19.0291 8.20099 18.2777 8.07548L17.7885 4.01843H14.7088L14.2214 8.06148C13.4266 8.22899 12.6942 8.50519 12.0241 8.89006C11.3539 9.27469 10.7247 9.7712 10.1367 10.3796L6.34088 8.76996L4.87456 11.3452L8.20656 13.8022C8.09382 14.1783 8.01044 14.5628 7.9564 14.9557C7.90212 15.3487 7.87498 15.7571 7.87498 16.1807C7.87498 16.5809 7.90212 16.9726 7.9564 17.356C8.01044 17.7397 8.08916 18.1242 8.19256 18.5095L4.87456 20.9883L6.34088 23.5635L10.1224 21.9462C10.7018 22.5369 11.3281 23.0231 12.0013 23.4047C12.6745 23.7864 13.4098 24.0755 14.207 24.272L14.7011 28.3151ZM16.2219 20.4084C17.4016 20.4084 18.4035 19.9964 19.2275 19.1723C20.0515 18.3483 20.4636 17.3464 20.4636 16.1667C20.4636 14.9871 20.0515 13.9852 19.2275 13.1612C18.4035 12.3371 17.4016 11.9251 16.2219 11.9251C15.0437 11.9251 14.0422 12.3371 13.2175 13.1612C12.3929 13.9852 11.9807 14.9871 11.9807 16.1667C11.9807 17.3464 12.3929 18.3483 13.2175 19.1723C14.0422 19.9964 15.0437 20.4084 16.2219 20.4084Z" fill="#131212"/>
</svg>

<svg xmlns="http://www.w3.org/2000/svg" viewBox="0 0 32 32">
  <path fill="currentColor" d="M14.393 30.167c-.346 0-.651-.114-.915-.34a1.367 1.367 0 0 1-.476-.853l-.47-3.257a8.762 8.762 0 0 1-1.49-.685 8.604 8.604 0 0 1-1.375-.949l-2.982 1.344a1.386 1.386 0 0 1-1.002.047 1.385 1.385 0 0 1-.78-.633l-1.866-3.278a1.28 1.28 0 0 1-.161-.975c.078-.336.262-.615.551-.835L6.12 17.75a7.26 7.26 0 0 1-.095-.785c-.02-.278-.029-.54-.029-.785 0-.236.01-.492.029-.768.02-.277.05-.553.095-.83L3.427 12.58a1.405 1.405 0 0 1-.544-.843 1.318 1.318 0 0 1 .169-.981l1.85-3.236a1.44 1.44 0 0 1 .78-.627c.336-.114.67-.1 1.003.04l2.968 1.321c.418-.338.882-.654 1.392-.947a7.714 7.714 0 0 1 1.473-.667l.484-3.281c.053-.341.211-.626.476-.853.264-.227.569-.34.915-.34h3.703c.347 0 .652.113.916.34.264.227.423.512.476.853l.47 3.27a10.33 10.33 0 0 1 1.484.685c.48.269.927.582 1.338.94l3.039-1.32c.333-.141.665-.155.994-.04.33.114.588.323.773.626l1.866 3.25c.186.313.24.642.162.986-.078.345-.262.62-.552.824l-2.748 2.005c.063.274.1.545.114.812a11.63 11.63 0 0 1-.007 1.517 6.66 6.66 0 0 1-.115.837l2.706 2c.29.205.476.48.559.824a1.28 1.28 0 0 1-.155.987l-1.849 3.264a1.426 1.426 0 0 1-.797.633c-.34.11-.672.094-1-.047l-2.99-1.344a11.49 11.49 0 0 1-1.363.969 6.522 6.522 0 0 1-1.46.665l-.47 3.27a1.367 1.367 0 0 1-.475.853c-.264.227-.57.34-.916.34h-3.703Zm.308-1.852h3.06l.53-4.057a8.434 8.434 0 0 0 2.148-.865 9.578 9.578 0 0 0 1.895-1.454l3.786 1.625 1.467-2.576-3.337-2.479c.106-.418.186-.817.239-1.197a9.006 9.006 0 0 0 .007-2.301 7.657 7.657 0 0 0-.246-1.159l3.365-2.507-1.466-2.575-3.829 1.631a8.03 8.03 0 0 0-1.84-1.491 6.263 6.263 0 0 0-2.202-.835l-.49-4.057h-3.08l-.487 4.043a7.476 7.476 0 0 0-2.197.83c-.67.384-1.3.88-1.887 1.489L6.34 8.77l-1.466 2.575 3.332 2.457c-.113.376-.197.76-.25 1.154a8.95 8.95 0 0 0 0 2.4c.053.384.132.768.236 1.153l-3.318 2.48 1.466 2.575 3.781-1.618a8.508 8.508 0 0 0 1.88 1.459c.672.381 1.408.67 2.205.867l.494 4.043Zm1.52-7.907c1.18 0 2.183-.412 3.006-1.236.825-.824 1.237-1.826 1.237-3.005 0-1.18-.412-2.182-1.236-3.006-.825-.824-1.826-1.236-3.006-1.236-1.178 0-2.18.412-3.005 1.236-.824.824-1.236 1.826-1.236 3.006 0 1.18.412 2.181 1.236 3.005.825.824 1.827 1.236 3.005 1.236Z"/>
</svg>
